images/info-icon.svg

<svg width="60" height="60" viewBox="0 0 60 60" fill="none" xmlns="http://www.w3.org/2000/svg">
<g filter="url(#filter0_i_2_13)">
<rect width="60" height="60" rx="6" fill="#161A21"/>
</g>
<rect x="1" y="1" width="58" height="58" rx="5" stroke="#6E80FD" stroke-width="2"/>
<g filter="url(#filter1_d_2_13)">
<path d="M32.225 23.675V49H27.775V23.675H32.225ZM33.175 15.725C33.175 16.1583 33.0833 16.5667 32.9 16.95C32.7333 17.3167 32.5 17.65 32.2 17.95C31.9167 18.2333 31.575 18.4583 31.175 18.625C30.7917 18.7917 30.3833 18.875 29.95 18.875C29.5167 18.875 29.1083 18.7917 28.725 18.625C28.3583 18.4583 28.0333 18.2333 27.75 17.95C27.4667 17.65 27.2417 17.3167 27.075 16.95C26.9083 16.5667 26.825 16.1583 26.825 15.725C26.825 15.2917 26.9083 14.8833 27.075 14.5C27.2417 14.1 27.4667 13.7583 27.75 13.475C28.0333 13.175 28.3583 12.9417 28.725 12.775C29.1083 12.6083 29.5167 12.525 29.95 12.525C30.3833 12.525 30.7917 12.6083 31.175 12.775C31.575 12.9417 31.9167 13.175 32.2 13.475C32.5 13.7583 32.7333 14.1 32.9 14.5C33.0833 14.8833 33.175 15.2917 33.175 15.725Z" fill="#6E80FD"/>
</g>
<defs>
<filter id="filter0_i_2_13" x="0" y="0" width="60" height="60" filterUnits="userSpaceOnUse" color-interpolation-filters="sRGB">
<feFlood flood-opacity="0" result="BackgroundImageFix"/>
<feBlend mode="normal" in="SourceGraphic" in2="BackgroundImageFix" result="shape"/>
<feColorMatrix in="SourceAlpha" type="matrix" values="0 0 0 0 0 0 0 0 0 0 0 0 0 0 0 0 0 0 127 0" result="hardAlpha"/>
<feMorphology radius="6" operator="erode" in="SourceAlpha" result="effect1_innerShadow_2_13"/>
<feOffset/>
<feGaussianBlur stdDeviation="3"/>
<feComposite in2="hardAlpha" operator="arithmetic" k2="-1" k3="1"/>
<feColorMatrix type="matrix" values="0 0 0 0 0 0 0 0 0 0 0 0 0 0 0 0 0 0 0.25 0"/>
<feBlend mode="normal" in2="shape" result="effect1_innerShadow_2_13"/>
</filter>
<filter id="filter1_d_2_13" x="22.825" y="8.52499" width="14.35" height="44.475" filterUnits="userSpaceOnUse" color-interpolation-filters="sRGB">
<feFlood flood-opacity="0" result="BackgroundImageFix"/>
<feColorMatrix in="SourceAlpha" type="matrix" values="0 0 0 0 0 0 0 0 0 0 0 0 0 0 0 0 0 0 127 0" result="hardAlpha"/>
<feOffset/>
<feGaussianBlur stdDeviation="2"/>
<feComposite in2="hardAlpha" operator="out"/>
<feColorMatrix type="matrix" values="0 0 0 0 0 0 0 0 0 0 0 0 0 0 0 0 0 0 0.25 0"/>
<feBlend mode="normal" in2="BackgroundImageFix" result="effect1_dropShadow_2_13"/>
<feBlend mode="normal" in="SourceGraphic" in2="effect1_dropShadow_2_13" result="shape"/>
</filter>
</defs>
</svg>

<svg width="60" height="60" fill="none" xmlns="http://www.w3.org/2000/svg"><g filter="url(#filter0_i_2_13)"><rect width="60" height="60" rx="6" fill="#161A21"/></g><rect x="1" y="1" width="58" height="58" rx="5" stroke="#6E80FD" stroke-width="2"/><g filter="url(#filter1_d_2_13)"><path d="M32.225 23.675V49h-4.45V23.675h4.45zm.95-7.95c0 .433-.092.842-.275 1.225-.167.367-.4.7-.7 1a3.137 3.137 0 01-1.025.675c-.383.167-.792.25-1.225.25-.433 0-.842-.083-1.225-.25a3.297 3.297 0 01-.975-.675 3.647 3.647 0 01-.675-1 3.038 3.038 0 01-.25-1.225c0-.433.083-.842.25-1.225.167-.4.392-.742.675-1.025.283-.3.608-.533.975-.7.383-.167.792-.25 1.225-.25.433 0 .842.083 1.225.25.4.167.742.4 1.025.7.3.283.533.625.7 1.025.183.383.275.792.275 1.225z" fill="#6E80FD"/></g><defs><filter id="filter0_i_2_13" x="0" y="0" width="60" height="60" filterUnits="userSpaceOnUse" color-interpolation-filters="sRGB"><feFlood flood-opacity="0" result="BackgroundImageFix"/><feBlend in="SourceGraphic" in2="BackgroundImageFix" result="shape"/><feColorMatrix in="SourceAlpha" values="0 0 0 0 0 0 0 0 0 0 0 0 0 0 0 0 0 0 127 0" result="hardAlpha"/><feMorphology radius="6" in="SourceAlpha" result="effect1_innerShadow_2_13"/><feOffset/><feGaussianBlur stdDeviation="3"/><feComposite in2="hardAlpha" operator="arithmetic" k2="-1" k3="1"/><feColorMatrix values="0 0 0 0 0 0 0 0 0 0 0 0 0 0 0 0 0 0 0.25 0"/><feBlend in2="shape" result="effect1_innerShadow_2_13"/></filter><filter id="filter1_d_2_13" x="22.825" y="8.525" width="14.35" height="44.475" filterUnits="userSpaceOnUse" color-interpolation-filters="sRGB"><feFlood flood-opacity="0" result="BackgroundImageFix"/><feColorMatrix in="SourceAlpha" values="0 0 0 0 0 0 0 0 0 0 0 0 0 0 0 0 0 0 127 0" result="hardAlpha"/><feOffset/><feGaussianBlur stdDeviation="2"/><feComposite in2="hardAlpha" operator="out"/><feColorMatrix values="0 0 0 0 0 0 0 0 0 0 0 0 0 0 0 0 0 0 0.25 0"/><feBlend in2="BackgroundImageFix" result="effect1_dropShadow_2_13"/><feBlend in="SourceGraphic" in2="effect1_dropShadow_2_13" result="shape"/></filter></defs></svg>
